X: 1420
T: An tSeanbhean Bhocht
R: hornpipe
M: 4/4
K: Gmajor
|:B>c|d>g g>a g>e d>c|B2 G2 G2 A>B|c>e a>b a>g e>d|c2 A2 A2 B>c|
d>g g>f g2 B>A|G>D B>D G>B d>B|c>e a>g f>d c>A|B>G G2 G2:|
|:d>c|B>d g>d B>d g>d|B>d c>A G>B d>B|(3cde a>e c>e a>e|
(3cBA B>G A2 D2|(3Bcd g>d B>d g z|B>d c>A G>B d>B|c>e a>g f>d c>A|B2 G2 G2:|
|:g>a|(3bag (3agf g>e d>c|B>G G2 B>d g>b|(3c'ba (3bag a>f d>B|(3cec (3BcB A2 g>a|
b>d a>d g2 B>A|G>D B>D (3GAB d>B|c>e (3bag f>d c>A|B>G G2 G2:|

